BMW Web App/client/src/assets/location_icon_colored.svg

<svg version="1.1" xmlns="http://www.w3.org/2000/svg" xmlns:xlink="http://www.w3.org/1999/xlink" width="15" height="16" viewBox="0,0,240,256"><g fill="none" fill-rule="nonzero" stroke="#354f52" stroke-width="1.5" stroke-linecap="round" stroke-linejoin="round" stroke-miterlimit="10" stroke-dasharray="" stroke-dashoffset="0" font-family="none" font-weight="none" font-size="none" text-anchor="none" style="mix-blend-mode: normal"><g transform="translate(6.45736,-0.00944) scale(16,16)"><path d="M11.8276,6.66732c0,3.32866 -3.27575,6.79538 -4.37575,7.86598c-0.10248,0.0869 -0.22722,0.1339 -0.35543,0.1339c-0.12822,0 -0.25296,-0.047 -0.35543,-0.1339c-1.1,-1.0706 -4.37576,-4.53732 -4.37576,-7.86598c0,-1.41449 0.49847,-2.77104 1.38574,-3.77124c0.88726,-1.00019 2.09066,-1.5621 3.34545,-1.5621c1.25479,0 2.45818,0.56191 3.34548,1.5621c0.8872,1.0002 1.3857,2.35675 1.3857,3.77124z"></path><path d="M7.09646,8.66602c0.97986,0 1.77419,-0.89543 1.77419,-2c0,-1.10457 -0.79433,-2 -1.77419,-2c-0.97986,0 -1.77419,0.89543 -1.77419,2c0,1.10457 0.79433,2 1.77419,2z"></path></g></g></svg>

<svg width="15" height="16" viewBox="0 0 15 16" fill="none" xmlns="http://www.w3.org/2000/svg">
<path d="M11.8276 6.66732C11.8276 9.99598 8.55185 13.4627 7.45185 14.5333C7.34937 14.6202 7.22463 14.6672 7.09642 14.6672C6.9682 14.6672 6.84346 14.6202 6.74099 14.5333C5.64099 13.4627 2.36523 9.99598 2.36523 6.66732C2.36523 5.25283 2.8637 3.89628 3.75097 2.89608C4.63823 1.89589 5.84163 1.33398 7.09642 1.33398C8.35121 1.33398 9.5546 1.89589 10.4419 2.89608C11.3291 3.89628 11.8276 5.25283 11.8276 6.66732Z" stroke="#2563EB" stroke-width="1.5" stroke-linecap="round" stroke-linejoin="round"/>
<path d="M7.09646 8.66602C8.07632 8.66602 8.87065 7.77059 8.87065 6.66602C8.87065 5.56145 8.07632 4.66602 7.09646 4.66602C6.1166 4.66602 5.32227 5.56145 5.32227 6.66602C5.32227 7.77059 6.1166 8.66602 7.09646 8.66602Z" stroke="#2563EB" stroke-width="1.5" stroke-linecap="round" stroke-linejoin="round"/>
</svg>
